icons/ambulance.svg

<svg width="24" height="24" viewBox="0 0 24 24" fill="none" xmlns="http://www.w3.org/2000/svg">
<path d="M6.77778 10.2856H11.2222M9 8.07127V12.4998M8.89667 17.4322C8.89667 18.9877 7.66111 20.2498 6.13778 20.2498C4.61444 20.2498 3.37889 18.9877 3.37889 17.4311M8.89667 17.4322C8.89667 15.8766 7.66111 14.6134 6.13778 14.6134C4.61444 14.6134 3.37889 15.8755 3.37889 17.4311M16.4833 17.4322L15.69 17.4333L8.89667 17.4322M3.37889 17.4311C2.61735 17.4311 2 16.8139 2 16.0524C2 12.9626 2 8.89034 2 6.49746C2 5.39283 2.89553 4.49991 4.00016 4.5L13.6902 4.50078C14.7947 4.50087 15.69 5.39628 15.69 6.50078V7.50094M15.69 17.4333V7.50094M15.69 7.50094H16C19.3137 7.50094 22 10.1872 22 13.5009V17.4322M22 17.4322C22 18.9888 20.7656 20.2509 19.2422 20.2509C17.7189 20.2509 16.4833 18.9888 16.4833 17.4322M22 17.4322C22 15.8766 20.7656 14.6145 19.2422 14.6145C17.7189 14.6145 16.4833 15.8766 16.4833 17.4322" stroke="black" stroke-width="2" stroke-linecap="round" stroke-linejoin="round"/>
</svg>

<svg xmlns="http://www.w3.org/2000/svg" width="24" height="24" viewBox="0 0 24 24" fill="none" stroke="currentColor" stroke-width="2" stroke-linecap="round" stroke-linejoin="round">
<path d="M6.778 10.286h4.444M9 8.07v4.43m-.103 4.932c0 1.556-1.236 2.818-2.76 2.818S3.38 18.988 3.38 17.43m5.518.001c0-1.555-1.236-2.819-2.76-2.819S3.38 15.876 3.38 17.431m13.104.001-.793.001H8.897m-5.518-.002A1.38 1.38 0 0 1 2 16.052V6.497C2 5.393 2.896 4.5 4 4.5h9.69a2 2 0 0 1 2 2v1m0 9.933V7.501m0 0H16a6 6 0 0 1 6 6v3.931m0 0c0 1.557-1.234 2.819-2.758 2.819-1.523 0-2.759-1.262-2.759-2.819m5.517 0c0-1.555-1.234-2.817-2.758-2.817-1.523 0-2.759 1.262-2.759 2.817"/>
</svg>
